!!!!SEGMENT: pl-kozmzk--mzk-m-159--050_walczynski-franciszek--praeludia-organi-op-5-allegro.krn
!!!cenid: 18xx:2793
!!!COM: Walczyński, Franciszek
!!!COM-rismid: pe30021989
!!!CDT: ~1852-1937
!!!CNT: Polish
!!!GTL: Praeludia organi op. 5
!!!OTL: 50. Allegro
!!!PDT: 1894
!!!AGN: Secular; Prelude
!!!SMS-siglum: PL-KOZmzk
!!!SMS-shelfmark: mzk/m/159
!!!SMS-shelfwork: 050 G
!!!SMS-variant:
!!!SMS-altvar:
!!!NIFC-rismid: 1001118865
!!!URL-scan: https://repozytorium.nifc.pl/islandora/object/pl-kozmzk%3A2265/datastream/PDF/view
!!!ONB-nifc: UWAGA: numeracja plików zgodna z numeracją źrodłową
!!!OMD: 50. Allegro.
!!!key:
**kern	**kern	**dynam
*part2	*part1	*part1
*staff2	*staff1	*
*Iorgan	*Iempty	*
*I"[Organo]	*	*
*clefF4	*clefG2	*
*k[b-e-a-d-g-]	*k[b-e-a-d-g-]	*
*b-:	*b-:	*
*M3/4	*M3/4	*
=1	=1	=1
*^	*^	*
!	!	!	!	!LO:DY:b=2:rj
2.rc	(4FF\	2.rg	2.r	f
.	4F\	.	.	.
.	4E-\	.	.	.
=2	=2	=2	=2	=2
2.r	8D-\L	2.rg	2.r	.
.	8E-\	.	.	.
.	8C\	.	.	.
.	8D-\J	.	.	.
.	4BB-\)	.	.	.
=3	=3	=3	=3	=3
(4F/	(2.AAn\	2.rg	2.r	.
4f/	.	.	.	.
4e-/	.	.	.	.
=4	=4	=4	=4	=4
8d-/L	4BB-\	2.rg	2.r	.
8e-/	.	.	.	.
8c/	4C\	.	.	.
8d-/J	.	.	.	.
4B-/)	4D-\)	.	.	.
=5	=5	=5	=5	=5
[2.B-/	(2.Dn\	2.rgg	(4B-\	f
.	.	.	4b-\	.
.	.	.	4a-\	.
=6	=6	=6	=6	=6
2.B-/]	4E-\	2.rgg	8g-\L	.
.	.	.	8a-\	.
.	4F\	.	8f\	.
.	.	.	8g-\J	.
.	4G-\)	.	4e-\)	.
!!LO:LB:g=original
=7	=7	=7	=7	=7
(4An/	(4F\	(4f/	[2.f\	ff
4B-/	4Gn\	4ff/	.	.
4c/	4A\	4ee-/	.	.
=8	=8	=8	=8	=8
4d-/	2.B-\)	8dd-/L	2.f\]	.
.	.	8ee-/	.	.
4e-/	.	8cc/	.	.
.	.	8dd-/J	.	.
4d-/)	.	4b-/)	.	.
=9	=9	=9	=9	=9
4e-/	4E-\	(4cc/	4g-\	p
4d-/	2F\	4b-/	4.f\	.
4c/	.	4an/	.	.
.	.	.	8e-\	.
=10	=10	=10	=10	=10
2.B-/	2.G-\	2.b-/)	(4d-\	<
.	.	.	4c\	.
.	.	.	4d-\)	[
=11	=11	=11	=11	=11
!LO:TX:b:i:t=Ped.	!	!	!	!
[2.B-/	2.Dn\	(4b-/	(2.f\	.
.	.	4a-X/	.	.
.	.	4f/	.	.
=12	=12	=12	=12	=12
(2.B-/_	2.E-\	4a-/	2.e-\)	.
.	.	4g-/	.	.
.	.	4e-/)	.	.
=13	=13	=13	=13	=13
!	!	!LO:TX:a:i:t=rit.	!	!
2B-/]	2F\	[2.f/	2d-X\	.
4An/)	4FF\	.	4c\	.
=14	=14	=14	=14	=14
2.B-/	2.BB-;\	2.f;/]	2.d-\	pp
*v	*v	*	*	*
*	*v	*v	*
==	==	==
*-	*-	*-
!!!system-decoration: {(s1,s2)}
!!!EED: Andrzej Borzym
!!!EST: 2021-08-08
!!!AIN: 1 empty 1 organ
!!!ENC: Krzysztof Stępień
!!!END: 2021-07-26
